X: 1
T:Ach Gott, erh\"or' mein Seufzen
T:BWV 254
C:Johann Sebastian Bach
O:Germany
Z:Transcribed by Frank Nordberg - http://www.musicaviva.com

V:1 Program 1 6 up %Harpsichord
V:2 Program 1 6 merge down %Harpsichord
V:3 Program 1 6 bass up %Harpsichord
V:4 Program 1 6 bass merge down %Harpsichord
M:C
L:1/8
Q:1/4=96
K:Dm
V:1
D2|F2 F2 G2 G2|A2 A2 B2 A2|G4 F2 C2|F2 F2 G2 G2|A2 A2 G2 F2|
V:2
A,2|DE F2 F2 ED|C2 D2 DG2F-|FE/D/ E2 C2 A,G,|F,2 D2 D2 C2|C2 F2 FE2D|
V:3
F,2|A,2 C2 D2 CB,|A,G,2&lt;F,2E, C2|DG, CB, A,2 F,G,|A,2 B,2 =B,A, G,2|F,2 C2 C3/_B,/ A,2|
V:4
D,2|D,2 A,,2 B,,2 C,2|F,E, D,2 G,,2 A,,2|B,,2 C,2 F,,2 F,E,|D,C,B,,A,, G,,F,, E,,2|F,,G,,A,,B,, C,2 D,2|

V:1
E4 D2 A2|F2 G2 E2 A2|F2 G2 E2 E2|F2 F2 G2 G2|A2 A2 G2 F2|E4 D4|]
V:2
D2 ^C2 A,2 E2-|ED DE ^C2 E2|DC D2 C2 C2|C2 D2 D2 E2-|ED/E/ F2 E3D|D2 ^C2 A,4|]
V:3
B,2 A,G, F,2 A,2|A,2 B,2 A,2 A,2|A,2 G,2 G,2 G,2|A,2 A,2 B,3C/=B,/|A,2 DC _B,2 A,2|B,2 A,G, ^F,4|]
V:4
G,,2 A,,2 D,,2 C,2|D,2 G,,2 A,,2 C,2-|C,2 =B,,2 C,2 C,_B,,|A,,F,, D,C, B,,A,, G,,C,|F,E, D,3^C, D,2|G,,2 A,,2 D,,4|]

